X: 1
T: Ich fahr dahin, wann es muss sein
C: Nach dem Lochheimer Liederbuch, 1452.
M: 3/4
K: F
L: 1/4
C | "F"F2F | "C7"C2"Bb"B | "C7"A2G | "F"F2F | "C"E2"F"F | "C"G2C | "G7"E2D | "C"C2"C7"C | "F"F2G | A2G | "Bb"B2A | "F"F2F | A2B | c2"Bb"d | "F"(cA)F | !fermata!"C7"G2F | E2F | !fermata!"C7"B2G | "F"A2"C7"G | "F"F2 |]
w: 1.~Ich fahr da-hin, wann es muss sein, ich scheid  mich von der  Lieb-sten mein; zur Letz lass ich das Her-ze mein, die-weil ich leb, so soll* es sein. Ich fahr da-hin, ich fahr da-hin.
w: 2.~Halt du dein Treu so stet als ich, und wie du willst, so findst du mich. Halt dich in Hut, das bitt' ich ich dich. Gesegn dich Gott! Ich fahr* da-hin, ich fahr da-hin, ich fahr da-hin.

